X:1
T:Title
%%score { ( 1 3 ) | ( 2 4 ) }
L:1/8
M:4/4
K:Eb
V:1 treble nm="Grand Piano"
V:3 treble 
V:2 bass 
V:4 bass 
V:1
 z4 z2[Q:1/4=100] G2 | G2 [DF]2 [CE]2 [DF]2 | G6 A2 | B4 c4 | B6 B2 | A2 G2 F2 [=B,DG]2 | %6
 [CE]6 [CE]2 | [CEA]4 [DF]4 |[M:3/4] [G,E]6 |] %9
V:2
 z4 z2 [E,B,E]2 | [E,B,E]2 [B,,A,]2 [C,G,]2 [B,,B,]2 | [E,B,E]6 [F,B,D]2 | [G,B,E]4 [A,E]4 | %4
 [E,G,E]6 [G,E]2 | [F,A,D]2 [E,B,E]2 [D,B,]2 G,,2 | C,6 C,2 | A,,4 z2 A,2 |[M:3/4] E,6 |] %9
V:3
 x8 | x8 | x8 | x8 | x8 | x8 | x8 | z4 B,2 z2 |[M:3/4] x6 |] %9
V:4
 x8 | x8 | x8 | x8 | x8 | x8 | x8 | z4 B,,4 |[M:3/4] x6 |] %9

